app/images/icons/facebook.svg

<svg width="24" height="24" viewBox="0 0 24 24" xmlns="http://www.w3.org/2000/svg">
<path d="M18.125 5H6.875C5.84094 5 5 5.84094 5 6.875V18.125C5 19.1591 5.84094 20 6.875 20H12.5V14.8438H10.625V12.5H12.5V10.625C12.5 9.07156 13.7591 7.8125 15.3125 7.8125H17.1875V10.1562H16.25C15.7325 10.1562 15.3125 10.1075 15.3125 10.625V12.5H17.6562L16.7188 14.8438H15.3125V20H18.125C19.1591 20 20 19.1591 20 18.125V6.875C20 5.84094 19.1591 5 18.125 5Z" fill="#ECEBEB"/>
</svg>

<svg width="24" height="24" xmlns="http://www.w3.org/2000/svg"><path d="M18.13 5H6.88C5.83 5 5 5.84 5 6.88v11.25C5 19.16 5.84 20 6.88 20h5.62v-5.16h-1.88V12.5h1.88v-1.88a2.81 2.81 0 0 1 2.81-2.8h1.88v2.34h-.94c-.52 0-.94-.05-.94.46v1.88h2.35l-.94 2.34h-1.4V20h2.8c1.04 0 1.88-.84 1.88-1.88V6.88C20 5.84 19.16 5 18.12 5Z" fill="#ECEBEB"/></svg>
